svg/fluentui-system-icons/ic_fluent_grid_28_regular.svg

<svg width="28" height="28" viewBox="0 0 28 28" fill="none" xmlns="http://www.w3.org/2000/svg">
<path d="M10.75 15C11.9926 15 13 16.0074 13 17.25V22.75C13 23.9926 11.9926 25 10.75 25H5.25C4.00736 25 3 23.9926 3 22.75V17.25C3 16.0074 4.00736 15 5.25 15H10.75ZM22.75 15C23.9926 15 25 16.0074 25 17.25V22.75C25 23.9926 23.9926 25 22.75 25H17.25C16.0074 25 15 23.9926 15 22.75V17.25C15 16.0074 16.0074 15 17.25 15H22.75ZM10.75 16.5H5.25C4.83579 16.5 4.5 16.8358 4.5 17.25V22.75C4.5 23.1642 4.83579 23.5 5.25 23.5H10.75C11.1642 23.5 11.5 23.1642 11.5 22.75V17.25C11.5 16.8358 11.1642 16.5 10.75 16.5ZM22.75 16.5H17.25C16.8358 16.5 16.5 16.8358 16.5 17.25V22.75C16.5 23.1642 16.8358 23.5 17.25 23.5H22.75C23.1642 23.5 23.5 23.1642 23.5 22.75V17.25C23.5 16.8358 23.1642 16.5 22.75 16.5ZM10.75 3C11.9926 3 13 4.00736 13 5.25V10.75C13 11.9926 11.9926 13 10.75 13H5.25C4.00736 13 3 11.9926 3 10.75V5.25C3 4.00736 4.00736 3 5.25 3H10.75ZM22.75 3C23.9926 3 25 4.00736 25 5.25V10.75C25 11.9926 23.9926 13 22.75 13H17.25C16.0074 13 15 11.9926 15 10.75V5.25C15 4.00736 16.0074 3 17.25 3H22.75ZM10.75 4.5H5.25C4.83579 4.5 4.5 4.83579 4.5 5.25V10.75C4.5 11.1642 4.83579 11.5 5.25 11.5H10.75C11.1642 11.5 11.5 11.1642 11.5 10.75V5.25C11.5 4.83579 11.1642 4.5 10.75 4.5ZM22.75 4.5H17.25C16.8358 4.5 16.5 4.83579 16.5 5.25V10.75C16.5 11.1642 16.8358 11.5 17.25 11.5H22.75C23.1642 11.5 23.5 11.1642 23.5 10.75V5.25C23.5 4.83579 23.1642 4.5 22.75 4.5Z" fill="#212121"/>
</svg>

<svg xmlns="http://www.w3.org/2000/svg" width="28" height="28"><path d="M10.75 15A2.25 2.25 0 0 1 13 17.25v5.5A2.25 2.25 0 0 1 10.75 25h-5.5A2.25 2.25 0 0 1 3 22.75v-5.5A2.25 2.25 0 0 1 5.25 15h5.5Zm12 0A2.25 2.25 0 0 1 25 17.25v5.5A2.25 2.25 0 0 1 22.75 25h-5.5A2.25 2.25 0 0 1 15 22.75v-5.5A2.25 2.25 0 0 1 17.25 15h5.5Zm-12 1.5h-5.5a.75.75 0 0 0-.75.75v5.5c0 .414.336.75.75.75h5.5a.75.75 0 0 0 .75-.75v-5.5a.75.75 0 0 0-.75-.75Zm12 0h-5.5a.75.75 0 0 0-.75.75v5.5c0 .414.336.75.75.75h5.5a.75.75 0 0 0 .75-.75v-5.5a.75.75 0 0 0-.75-.75ZM10.75 3A2.25 2.25 0 0 1 13 5.25v5.5A2.25 2.25 0 0 1 10.75 13h-5.5A2.25 2.25 0 0 1 3 10.75v-5.5A2.25 2.25 0 0 1 5.25 3h5.5Zm12 0A2.25 2.25 0 0 1 25 5.25v5.5A2.25 2.25 0 0 1 22.75 13h-5.5A2.25 2.25 0 0 1 15 10.75v-5.5A2.25 2.25 0 0 1 17.25 3h5.5Zm-12 1.5h-5.5a.75.75 0 0 0-.75.75v5.5c0 .414.336.75.75.75h5.5a.75.75 0 0 0 .75-.75v-5.5a.75.75 0 0 0-.75-.75Zm12 0h-5.5a.75.75 0 0 0-.75.75v5.5c0 .414.336.75.75.75h5.5a.75.75 0 0 0 .75-.75v-5.5a.75.75 0 0 0-.75-.75Z"/></svg>
